X:2496
L:1/8
M:2/2
K:A
 (A/B/c/d/) ea fdec | dfec (dB B2) | (A/B/c/d/) ea fdec | (d/e/f/d/) (B/c/d/B/) c(A A2) || 
 aecA aecA | dfce d(B B)f/g/ | aecA (f/g/a/)e/ (d/c/B/A/) | (d/e/f/d/) (B/c/d/B/) c(A A2) || 
 EAce EAxe | f(e/d/) e(d/c/) d(B B2) | EAce fg a(g/f/) | e(d/c/) (B/c/d/B/) c(A A2) ||

